X:388
T:Leaps and bounds
R:Reel
O:Scotland
C:Alisdair Fraser
S:SF Scottish Fiddlers 1995 handout
Z:Transcription, chords:Mike Long
M:C|
L:1/8
K:D
"A"A3 B c3 d|"A"eaec "D"d2 cd|"A"eaec Acec|"E"BE ~E2 BdcB|\
"A"A3 B c3 d|"A"eaec "D"d2 cd|
"A"eaec "G"BgeB|[1 "A"c2 Bc AFEF:|[2 "A"c2 A2 A3 e\
|:"A"a3 f "G"g3 e|"D"fedf "A"eA ~A2|"A"eAgA eA ~A2|
"G"BGBd gdBg|"A"a3 f "G"g3 e|"D"fedf "A"e3 c|"D"d2 fd "A"caec|\
[1 "G"BgeB "A"cAAe:|[2 "G"BgeB "A"cAAB|]
